assets/Person superhero/Medium/Flat/person_superhero_flat_medium.svg

<svg width="32" height="32" viewBox="0 0 32 32" fill="none" xmlns="http://www.w3.org/2000/svg">
<path d="M21.9982 16.635C22.0232 16.322 21.7865 16 21.388 16H11.1049C10.7712 16 10.5517 16.2364 10.508 16.5H10.5C10.5 16.5 2.5 18.4801 2 30H4L16 27L28 30H30C29.5758 19.8035 23.7546 17.1972 21.9982 16.635Z" fill="#F8312F"/>
<path d="M8 30L6.5 24.5L8 18.8549C8.7607 18.0829 9.62204 17.4143 10.5772 16.8815C10.622 16.9568 10.687 17.0247 10.7741 17.0788L16 20.5L21.7188 17.0788C21.7259 17.0744 21.7328 17.0699 21.7396 17.0652C22.5693 17.5651 23.3243 18.1692 24 18.8549L25.5 24.5L24 30H8Z" fill="#007ACF"/>
<path d="M8 30V18.8549C5.42217 21.471 4 25.2743 4 29V30H8Z" fill="#0092E7"/>
<path d="M24 18.8549V30H28V29C28 25.2743 26.5778 21.471 24 18.8549Z" fill="#0092E7"/>
<path d="M13.3317 23H18.6683C19.4595 23 19.9373 23.8752 19.5095 24.5408L16.8412 28.6915C16.4475 29.3038 15.5525 29.3038 15.1588 28.6915L12.4905 24.5408C12.0627 23.8752 12.5405 23 13.3317 23Z" fill="#0092E7"/>
<path d="M15.97 20.93C16.5223 20.93 16.97 20.4823 16.97 19.93C16.97 19.3777 16.5223 18.93 15.97 18.93C15.4177 18.93 14.97 19.3777 14.97 19.93C14.97 20.4823 15.4177 20.93 15.97 20.93Z" fill="#FCD53F"/>
<path d="M16 18.5C14.8932 18.5 14 17.5359 14 16.3413V13.6587C14 12.4641 14.8932 11.5 16 11.5C17.1068 11.5 18 12.4641 18 13.6587V16.3413C18 17.5359 17.1068 18.5 16 18.5Z" fill="#B87A66"/>
<path d="M22.2499 5.29C21.9499 4.77 21.4799 4.41 20.9599 4.23C20.3899 4.04 19.8899 3.66 19.5799 3.15C19.1599 2.46 18.3999 2 17.5399 2C17.2099 2 16.8899 2.07 16.6099 2.19C16.2199 2.36 15.7799 2.36 15.3899 2.19C15.0999 2.07 14.7899 2 14.4599 2C13.6099 2 12.8599 2.44 12.4399 3.11C12.1099 3.63 11.6199 4.03 11.0299 4.23C10.4799 4.42 9.99992 4.81 9.70992 5.36C9.27992 6.16 9.36992 7.12 9.85992 7.83C10.0299 8.09 10.1299 8.4 10.1299 8.71V12.88C10.1299 13.81 10.7199 14.63 11.5999 14.94L13.4899 15.59V8.17C13.6399 8.03 13.7599 7.86 13.8699 7.67C14.0399 7.38 14.1399 7.06 14.1699 6.75C14.2599 6.76 14.3599 6.77 14.4499 6.77C15.0399 6.77 15.5799 6.56 15.9899 6.2C16.4099 6.55 16.9399 6.77 17.5299 6.77C17.6299 6.77 17.7199 6.76 17.8099 6.75C17.8499 7.07 17.9399 7.38 18.1099 7.67C18.2199 7.86 18.3499 8.02 18.4899 8.17V15.6L20.3799 14.95C21.2599 14.65 21.8499 13.82 21.8499 12.89V8.72C21.8499 8.41 21.9499 8.1 22.1299 7.84C22.6499 7.1 22.7199 6.11 22.2499 5.29Z" fill="#593B39"/>
<path d="M12.7702 10.59C12.7702 11.5124 12.0225 12.26 11.1002 12.26C10.1779 12.26 9.43018 11.5124 9.43018 10.59C9.43018 9.66773 10.1779 8.92004 11.1002 8.92004C12.0225 8.92004 12.7702 9.66773 12.7702 10.59Z" fill="#BB806E"/>
<path d="M22.5601 10.59C22.5601 11.5124 21.8124 12.26 20.8901 12.26C19.9678 12.26 19.2201 11.5124 19.2201 10.59C19.2201 9.66773 19.9678 8.92004 20.8901 8.92004C21.8124 8.92004 22.5601 9.66773 22.5601 10.59Z" fill="#BB806E"/>
<path d="M10.75 8.18812C10.8253 6.41802 12.3341 5 14.1775 5H15.4852C15.7669 5 16.0084 5.16585 16.119 5.40976C16.5214 6.27805 17.4167 6.82439 18.3925 6.82439H19.8311C20.6359 6.86341 21.2697 7.51707 21.2495 8.30731L21.2403 8.69146L20.5 10L21.0758 11.3321L20.9276 13.6439C20.6559 15.5659 18.976 17 16.974 17H15.0627C13.0708 17 11.3808 15.5659 11.1192 13.6439L10.9609 11.3047L11.5 10L10.783 8.6754L10.75 8.18812Z" fill="#C68D7B"/>
<path d="M16.0005 13.7058C15.45 13.7058 14.9301 13.567 14.4918 13.3214C14.3389 13.2359 14.186 13.4175 14.2777 13.567C14.6447 14.1543 15.2767 14.5494 16.0005 14.5494C16.7243 14.5494 17.3563 14.1543 17.7233 13.567C17.8151 13.4175 17.652 13.2466 17.5093 13.3214C17.0607 13.567 16.551 13.7058 16.0005 13.7058Z" fill="#990838"/>
<path d="M19.9192 8.40764L19.9681 8.43764C20.1834 8.57764 20.428 8.65764 20.6726 8.67764H21.25L21.0934 11.3376H20.5748C20.3889 11.3376 20.2127 11.3776 20.0464 11.4576L19.7822 11.5776L19.5473 11.6676L19.3712 11.7276C18.9602 11.8776 18.5002 11.8876 18.0795 11.7676L17.7761 11.6776C17.6587 11.6476 17.5412 11.5976 17.4336 11.5476L17.2281 11.4476C17.0617 11.3676 16.8856 11.3276 16.6997 11.3276H15.2612C15.0753 11.3276 14.8991 11.3676 14.7328 11.4476L14.5077 11.5576C14.4098 11.6076 14.3022 11.6476 14.1945 11.6776L13.9205 11.7576C13.4998 11.8776 13.0496 11.8676 12.6288 11.7376L12.4136 11.6676C12.3255 11.6376 12.2374 11.5976 12.1493 11.5576L11.9047 11.4376C11.7384 11.3576 11.5622 11.3176 11.3763 11.3176H10.9066L10.75 8.65764H11.2686C11.5231 8.65764 11.7677 8.57764 11.983 8.43764L12.0123 8.40764C12.1983 8.28764 12.394 8.18764 12.5995 8.11764L12.6386 8.10764C13.0594 7.96764 13.5096 7.96764 13.9303 8.08764L14.0184 8.11764C14.2435 8.18764 14.4588 8.28764 14.6545 8.42764L14.6643 8.43764C14.8698 8.57764 15.1144 8.65764 15.3688 8.65764H16.5822C16.8367 8.65764 17.0813 8.58764 17.2868 8.43764C17.4923 8.28764 17.7174 8.18764 17.9522 8.11764L18.0795 8.08764C18.5002 7.96764 18.9504 7.97764 19.3712 8.12764C19.5669 8.19764 19.7528 8.28764 19.9192 8.40764Z" fill="#F8312F"/>
<path d="M15.6541 10.2897L15.1583 12.0282C15.0554 12.384 15.2986 12.75 15.6447 12.75H16.3743C16.7204 12.75 16.9636 12.384 16.8607 12.0282L16.365 10.2897C16.2621 9.90342 15.7663 9.90342 15.6541 10.2897Z" fill="#AB6A55"/>
<path d="M12.1802 10.28C12.3302 9.65995 12.8902 9.19995 13.5602 9.19995C14.2602 9.19995 14.8302 9.68995 14.9602 10.35C14.9902 10.5 14.8802 10.63 14.7302 10.63H12.4502C12.2702 10.63 12.1302 10.45 12.1802 10.28Z" fill="white"/>
<path d="M19.8301 10.28C19.6801 9.65995 19.1201 9.19995 18.4501 9.19995C17.7501 9.19995 17.1801 9.68995 17.0501 10.35C17.0201 10.5 17.1301 10.63 17.2801 10.63H19.5601C19.7401 10.63 19.8701 10.46 19.8301 10.28Z" fill="white"/>
<path d="M12.8599 10.39C12.8599 9.88998 13.2699 9.47998 13.7699 9.47998C14.2799 9.47998 14.6899 9.88998 14.6799 10.39C14.6799 10.47 14.6699 10.55 14.6499 10.63H12.8899C12.8699 10.55 12.8599 10.47 12.8599 10.39Z" fill="#7D4533"/>
<path d="M19.1498 10.39C19.1498 9.88998 18.7398 9.47998 18.2398 9.47998C17.7298 9.47998 17.3298 9.88998 17.3298 10.39C17.3298 10.47 17.3398 10.55 17.3598 10.63H19.1198C19.1398 10.55 19.1498 10.47 19.1498 10.39Z" fill="#7D4533"/>
<path d="M13.77 9.87C14.06 9.87 14.29 10.1 14.29 10.39C14.29 10.48 14.27 10.56 14.23 10.63H13.31C13.27 10.56 13.25 10.48 13.25 10.39C13.25 10.1 13.48 9.87 13.77 9.87Z" fill="black"/>
<path d="M18.24 9.87C17.95 9.87 17.72 10.1 17.72 10.39C17.72 10.48 17.74 10.56 17.78 10.63H18.7C18.74 10.56 18.76 10.48 18.76 10.39C18.76 10.1 18.53 9.87 18.24 9.87Z" fill="black"/>
<path d="M13.62 10.02C13.62 10.1084 13.5484 10.18 13.46 10.18C13.3717 10.18 13.3 10.1084 13.3 10.02C13.3 9.93162 13.3717 9.85999 13.46 9.85999C13.5484 9.85999 13.62 9.93162 13.62 10.02Z" fill="white"/>
<path d="M18.12 10.02C18.12 10.1084 18.0484 10.18 17.96 10.18C17.8717 10.18 17.8 10.1084 17.8 10.02C17.8 9.93162 17.8717 9.85999 17.96 9.85999C18.0484 9.85999 18.12 9.93162 18.12 10.02Z" fill="white"/>
</svg>

<svg xmlns="http://www.w3.org/2000/svg" width="32" height="32" fill="none"><path fill="#F8312F" d="M21.998 16.635a.592.592 0 0 0-.61-.635H11.105a.592.592 0 0 0-.597.5H10.5S2.5 18.48 2 30h2l12-3 12 3h2c-.424-10.197-6.245-12.803-8.002-13.365Z"/><path fill="#007ACF" d="m8 30-1.5-5.5L8 18.855c.76-.772 1.622-1.44 2.577-1.974.045.076.11.144.197.198L16 20.5l5.719-3.421a.496.496 0 0 0 .02-.014c.83.5 1.585 1.104 2.261 1.79l1.5 5.645L24 30H8Z"/><path fill="#0092E7" d="M8 30V18.855C5.422 21.47 4 25.275 4 29v1h4ZM24 18.855V30h4v-1c0-3.726-1.422-7.529-4-10.145ZM13.332 23h5.336a1 1 0 0 1 .841 1.54l-2.668 4.152a1 1 0 0 1-1.682 0L12.49 24.54A1 1 0 0 1 13.33 23Z"/><path fill="#FCD53F" d="M15.97 20.93a1 1 0 1 0 0-2 1 1 0 0 0 0 2Z"/><path fill="#B87A66" d="M16 18.5c-1.107 0-2-.964-2-2.159V13.66c0-1.195.893-2.159 2-2.159s2 .964 2 2.159v2.682c0 1.195-.893 2.159-2 2.159Z"/><path fill="#593B39" d="M22.25 5.29c-.3-.52-.77-.88-1.29-1.06a2.56 2.56 0 0 1-1.38-1.08 2.377 2.377 0 0 0-2.97-.96c-.39.17-.83.17-1.22 0-.29-.12-.6-.19-.93-.19-.85 0-1.6.44-2.02 1.11-.33.52-.82.92-1.41 1.12-.55.19-1.03.58-1.32 1.13-.43.8-.34 1.76.15 2.47.17.26.27.57.27.88v4.17c0 .93.59 1.75 1.47 2.06l1.89.65V8.17c.15-.14.27-.31.38-.5.17-.29.27-.61.3-.92a2.32 2.32 0 0 0 1.82-.55c.42.35.95.57 1.54.57.1 0 .19-.01.28-.02a2.373 2.373 0 0 0 .68 1.42v7.43l1.89-.65c.88-.3 1.47-1.13 1.47-2.06V8.72c0-.31.1-.62.28-.88.52-.74.59-1.73.12-2.55Z"/><path fill="#BB806E" d="M12.77 10.59a1.67 1.67 0 1 1-3.34 0 1.67 1.67 0 0 1 3.34 0ZM22.56 10.59a1.67 1.67 0 1 1-3.34 0 1.67 1.67 0 0 1 3.34 0Z"/><path fill="#C68D7B" d="M10.75 8.188C10.825 6.418 12.334 5 14.178 5h1.307c.282 0 .523.166.634.41.402.868 1.298 1.414 2.273 1.414h1.44c.804.04 1.438.693 1.418 1.483l-.01.384L20.5 10l.576 1.332-.148 2.312C20.656 15.566 18.976 17 16.974 17h-1.911c-1.992 0-3.682-1.434-3.944-3.356l-.158-2.34L11.5 10l-.717-1.325-.033-.487Z"/><path fill="#990838" d="M16 13.706a3.09 3.09 0 0 1-1.508-.385c-.153-.085-.306.097-.214.246.367.587.999.982 1.722.982.724 0 1.356-.395 1.723-.982.092-.15-.071-.32-.214-.246a3.12 3.12 0 0 1-1.509.385Z"/><path fill="#F8312F" d="m19.92 8.408.048.03c.215.14.46.22.705.24h.577l-.157 2.66h-.518c-.186 0-.362.04-.529.12l-.264.12-.235.09-.176.06c-.41.15-.87.16-1.291.04l-.304-.09a2.021 2.021 0 0 1-.342-.13l-.206-.1a1.204 1.204 0 0 0-.528-.12H15.26c-.186 0-.362.04-.528.12l-.225.11c-.098.05-.206.09-.313.12l-.274.08c-.421.12-.871.11-1.292-.02l-.215-.07c-.088-.03-.177-.07-.265-.11l-.244-.12a1.204 1.204 0 0 0-.529-.12h-.47l-.156-2.66h.519c.254 0 .499-.08.714-.22l.03-.03c.185-.12.381-.22.587-.29l.039-.01c.42-.14.87-.14 1.291-.02l.088.03c.225.07.44.17.636.31l.01.01c.206.14.45.22.705.22h1.213c.255 0 .5-.07.705-.22.205-.15.43-.25.665-.32l.127-.03c.421-.12.871-.11 1.292.04.196.07.382.16.548.28Z"/><path fill="#AB6A55" d="m15.654 10.29-.496 1.738c-.103.356.14.722.487.722h.73c.345 0 .589-.366.486-.722l-.496-1.738c-.103-.387-.599-.387-.71 0Z"/><path fill="#fff" d="M12.18 10.28c.15-.62.71-1.08 1.38-1.08.7 0 1.27.49 1.4 1.15a.23.23 0 0 1-.23.28h-2.28c-.18 0-.32-.18-.27-.35ZM19.83 10.28c-.15-.62-.71-1.08-1.38-1.08-.7 0-1.27.49-1.4 1.15-.03.15.08.28.23.28h2.28c.18 0 .31-.17.27-.35Z"/><path fill="#7D4533" d="M12.86 10.39c0-.5.41-.91.91-.91a.9.9 0 0 1 .91.91c0 .08-.01.16-.03.24h-1.76a.986.986 0 0 1-.03-.24ZM19.15 10.39c0-.5-.41-.91-.91-.91-.51 0-.91.41-.91.91 0 .08.01.16.03.24h1.76c.02-.08.03-.16.03-.24Z"/><path fill="#000" d="M13.77 9.87a.516.516 0 0 1 .46.76h-.92a.516.516 0 0 1 .46-.76ZM18.24 9.87a.516.516 0 0 0-.46.76h.92a.516.516 0 0 0-.46-.76Z"/><path fill="#fff" d="M13.62 10.02a.16.16 0 1 1-.32 0 .16.16 0 0 1 .32 0ZM18.12 10.02a.16.16 0 1 1-.32 0 .16.16 0 0 1 .32 0Z"/></svg>
